public/img/assets/icons/sunset.svg

<svg width="24" height="24" viewBox="0 0 24 24" fill="none" xmlns="http://www.w3.org/2000/svg">
<path fill-rule="evenodd" clip-rule="evenodd" d="M12.2872 8.69309C12.1988 8.72976 12.1018 8.75 12.0001 8.75C11.8984 8.75 11.8015 8.72976 11.713 8.69309C11.6246 8.65649 11.5417 8.60224 11.4698 8.53033L9.46979 6.53033C9.1769 6.23744 9.1769 5.76256 9.46979 5.46967C9.76269 5.17678 10.2376 5.17678 10.5305 5.46967L11.2501 6.18934V4C11.2501 3.58579 11.5859 3.25 12.0001 3.25C12.4143 3.25 12.7501 3.58579 12.7501 4V6.18934L13.4698 5.46967C13.7627 5.17678 14.2376 5.17678 14.5305 5.46967C14.8233 5.76256 14.8233 6.23744 14.5305 6.53033L12.5305 8.53033C12.4585 8.60224 12.3757 8.65649 12.2872 8.69309ZM12.0001 10.4975C12.8428 10.4974 13.6708 10.7191 14.4006 11.1404C15.1305 11.5617 15.7366 12.1677 16.158 12.8975C16.5794 13.6273 16.8013 14.4551 16.8013 15.2979C16.8014 16.1406 16.5795 16.9685 16.1582 17.6983H19.4008C19.613 17.6983 19.8165 17.7826 19.9666 17.9326C20.1166 18.0827 20.2009 18.2862 20.2009 18.4984C20.2009 18.7106 20.1166 18.9141 19.9666 19.0641C19.8165 19.2142 19.613 19.2985 19.4008 19.2985H4.59941C4.38721 19.2985 4.1837 19.2142 4.03366 19.0641C3.88361 18.9141 3.79932 18.7106 3.79932 18.4984C3.79932 18.2862 3.88361 18.0827 4.03366 17.9326C4.1837 17.7826 4.38721 17.6983 4.59941 17.6983H7.84205C7.42069 16.9685 7.19887 16.1406 7.1989 15.2979C7.19893 14.4551 7.42081 13.6273 7.84222 12.8975C8.26364 12.1677 8.86974 11.5617 9.59961 11.1404C10.3295 10.7191 11.1574 10.4974 12.0001 10.4975ZM12.0001 12.0977C11.3651 12.0976 10.7445 12.2865 10.2171 12.6402C9.68981 12.9939 9.2796 13.4965 9.03873 14.084C8.79785 14.6715 8.7372 15.3174 8.86447 15.9395C8.99174 16.5616 9.3012 17.1318 9.75347 17.5775L9.88388 17.6975H14.1163C14.6036 17.2675 14.9483 16.6994 15.1048 16.0687C15.2613 15.4379 15.222 14.7745 14.9923 14.1667C14.7626 13.5588 14.3533 13.0353 13.8188 12.6657C13.2843 12.2961 12.6499 12.098 12.0001 12.0977Z" fill="#6A9CFF"/>
</svg>

<svg xmlns="http://www.w3.org/2000/svg" fill="none" viewBox="0 0 24 24"><path d="M12.29 8.7a.75.75 0 0 1-.82-.17l-2-2a.75.75 0 1 1 1.06-1.06l.72.72v-2.2a.75.75 0 0 1 1.5 0v2.2l.72-.72a.75.75 0 0 1 1.06 1.06l-2 2a.75.75 0 0 1-.24.16ZM12 10.5a4.8 4.8 0 0 1 4.16 7.2h3.24a.8.8 0 0 1 0 1.6H4.6a.8.8 0 1 1 0-1.6h3.24A4.8 4.8 0 0 1 12 10.5Zm0 1.6a3.2 3.2 0 0 0-2.25 5.48l.13.12h4.24A3.2 3.2 0 0 0 12 12.1Z" fill="#6A9CFF" fill-rule="evenodd" clip-rule="evenodd"/></svg>
